!!!CDT:
!!!PTL: Il decimoquinto libro de' madrigali à cinque voci
!!!PPP: Palermo
!!!PPR: Giovan Battista Maringo
!!!PDT: 1619
!!!RISM: I 15
!!!rime:
!!!AGN: Madrigal
!!!SCT: Tsg12075a
!!!SCA: Tsg12075a
!!!voices:
!!!COM: Il Verso, Antonio
!!!OTL: Io vivo? Io spiro ancora? E gli odiosi
**kern	**text	**kern	**text	**kern	**text	**kern	**text	**kern	**text
*part5	*part5	*part4	*part4	*part3	*part3	*part2	*part2	*part1	*part1
*staff5	*staff5	*staff4	*staff4	*staff3	*staff3	*staff2	*staff2	*staff1	*staff1
*I"Basso	*	*I"Quinto	*	*I"Tenore	*	*I"Alto	*	*I"Canto	*
*I'B	*	*I'V	*	*I'T	*	*I'A	*	*I'C	*
*oclefF4	*	*oclefC4	*	*oclefC4	*	*oclefC3	*	*oclefC1	*
*clefF4	*	*clefGv2	*	*clefGv2	*	*clefG2	*	*clefG2	*
*	*	*	*	*	*	*	*	*	*
*k[]	*	*k[]	*	*k[]	*	*k[]	*	*k[]	*
*	*	*	*	*	*	*	*	*	*
*omet(C)	*	*omet(C)	*	*omet(C)	*	*omet(C)	*	*omet(C)	*
*M4/2	*	*M4/2	*	*M4/2	*	*M4/2	*	*M4/2	*
=1	=1	=1	=1	=1	=1	=1	=1	=1	=1
!!LO:TX:a:t=Prima stanza.
4r	.	1r	.	4r	.	4r	.	4r	.
4G	Io	.	.	4d	Io	4g	Io	4b	Io
4G	vi-	.	.	4d	vi-	4g	vi-	4b	vi-
4G	-vo?	.	.	4d	-vo?	4g	-vo?	4b	-vo?
8r	.	8r	.	8r	.	2r	.	4r	.
8E	Io	8B	Io	8e	Io	.	.	.	.
4E	spi-	4B	spi-	4e	spi-	.	.	8g#X	Io
.	.	.	.	.	.	.	.	8g#X	spi-
4E	-ro	4B	-ro	4e	-ro	4r	.	4g#X	-ro
8r	.	8r	.	4r	.	8r	.	8r	.
8BB	an-	8d	an-	.	.	8g	an-	8dd	an-
=2	=2	=2	=2	=2	=2	=2	=2	=2	=2
4.C	-co-	4.e	-co-	4r	.	4.g	-co-	4.cc	-co-
.	.	.	.	4G	an-	.	.	.	.
8C	-ra? E	8e	-ra? E	.	.	8g	-ra? E	8cc	-ra? E
4C	gli o-	4e	gli o-	4.G	-co-	4g	gli o-	4cc	gli o-
4C	-di-	4e	-di-	.	.	4g	-di-	4cc	-di-
.	.	.	.	8G	-ra? E	.	.	.	.
4.G	-o-	2.d	-o-	4G	gli o-	2.g	-o-	2.b	-o-
.	.	.	.	4G	-di-	.	.	.	.
8G	-si	.	.	.	.	.	.	.	.
4G	Rai	.	.	4B	-o-	.	.	.	.
4E	ri-	[4c	-si	4c	-si	4g	-si	4ee	-si
=3	=3	=3	=3	=3	=3	=3	=3	=3	=3
*	*	*	*	*	*	*	*	*	*
2G	-mi-	4c]	.	4d	Rai	4g	Rai	4dd	Rai
.	.	8B	Rai	4d	ri-	4g	ri-	4dd	ri-
.	.	8A	ri-	.	.	.	.	.	.
4G	-ro	4B	-mi-	2d	-mi-	2g	-mi-	2dd	-mi-
4G	di	4B	-ro	.	.	.	.	.	.
4C	que-	4c	di	4e	-ro	1g	-ro	4cc	-ro
4C	-sto in-	8c	que-	4c	di	.	.	4e	di
.	.	8c	-sto in-	.	.	.	.	.	.
4C	-fau-	2G	-fau-	2c	que-	.	.	8e	que-
.	.	.	.	.	.	.	.	8f	-sto in-
4C	-sto	.	.	.	.	.	.	[4g	-fau-
=4	=4	=4	=4	=4	=4	=4	=4	=4	=4
1AA	di-	2A	-sto	2c	-sto in-	0r	.	4g]	.
.	.	.	.	.	.	.	.	4g	-so
.	.	1c	di-	4c	-fau-	.	.	2f#X	di-
.	.	.	.	4c	-sto	.	.	.	.
1GG	-e?	.	.	2d	di-	.	.	1g	-e?
.	.	2B	-e?	2d	-e?	.	.	.	.
=5	=5	=5	=5	=5	=5	=5	=5	=5	=5
*	*	*	*	*	*	*	*	*	*
1r	.	4r	.	1r	.	4r	.	4r	.
.	.	4c	Dì	.	.	4e	Dì	4g	Dì
.	.	4B	te-	.	.	4d	te-	4g	te-
.	.	4e	-sti-	.	.	4g	-sti-	4g	-sti-
4r	.	1d	-mon	2r	.	4f#X	-mon	4a	-mo
4G	Dì	.	.	.	.	4g	de'	4b	de'
4F#X	te-	.	.	4r	.	4a	miei	4dd	miei
4B-X	-sti-	.	.	4d	de'	4fnXi	mi-	4dd	mi-
=6	=6	=6	=6	=6	=6	=6	=6	=6	=6
4.A	-mon	4r	.	2e	miei	2a	-sfat-	2.cc#X	-sfat-
.	.	4A	de'	.	.	.	.	.	.
8A	de'	.	.	.	.	.	.	.	.
4A	miei	2A	miei	4e	mi-	2a	-ti,	.	.
4D	mi-	.	.	2d	-sfat-	.	.	4dd	-ti a-
2.D	-sfat-	4F	mi-	.	.	4r	.	1a	-sco-
.	.	2D	-sfat-	4d	-ti a-	4f	mi-	.	.
.	.	.	.	2A	-sco-	4f	-sfat-	.	.
4AA	-ti a-	4C#X	-ti a-	.	.	4e	-ti a-	.	.
=7	=7	=7	=7	=7	=7	=7	=7	=7	=7
*	*	*	*	*	*	*	*	*	*
2AA	-sco-	2E	-sco-	1A	-si,	2c#X	-sco-	1a	-si,
2AA	-si,	4E	-si,	.	.	2c#X	-si,	.	.
.	.	4E	Che	.	.	.	.	.	.
1r	.	4F	rim-	2r	.	2r	.	4r	.
.	.	4.F	-pro-	.	.	.	.	4.a	Che
.	.	.	.	4r	.	4.d	Che	.	.
.	.	8F	-ve-	.	.	.	.	8a	rim-
.	.	4G	-ra a	4G	Che	.	.	4b	-pro-
.	.	.	.	.	.	8d	rim-	.	.
=8	=8	=8	=8	=8	=8	=8	=8	=8	=8
1r	.	2C	me	4c	rim-	4e	-pro-	4cc	-ve-
.	.	.	.	4.c	-pro-	8f	-ve-	4cc	-ra a
.	.	.	.	.	.	8e	-ra a	.	.
.	.	2r	.	.	.	2d	me	2dd	me,
.	.	.	.	8B	-ve-	.	.	.	.
.	.	.	.	4B	-ra a	.	.	.	.
4r	.	4r	.	4c	me	2.e	le	4r	.
4.C	Che	4.G	Che	4c	le	.	.	4.ee	Che
.	.	.	.	4G	col-	.	.	.	.
8C	rim-	8A	rim-	.	.	.	.	8ee	rim-
4D	-pro-	[4B	-pro-	4d	-pe	8d	col-	4dd	-pro-
.	.	.	.	.	.	8f	-lpe	.	.
=9	=9	=9	=9	=9	=9	=9	=9	=9	=9
*	*	*	*	*	*	*	*	*	*
4E	-ve-	8B]	.	2G	mi-	2e	mi-	4b	-ve-
.	.	8B	-ve-	.	.	.	.	.	.
4E	-ra a	4c	-ra a	.	.	.	.	4g	-ra a-
2F	me	2A	me	2F	-e,	2c	-e,	2a	-me
2.AA	le	2.A	le	4r	.	2.e	le	2.cc	le
.	.	.	.	2c	le	.	.	.	.
8GG	col-	8B	col-	8d	col-	8g	col-	8b	col-
8GG	-pe	8d	-pe	8G	-pe	8g	-pe	8b	-e
=10	=10	=10	=10	=10	=10	=10	=10	=10	=10
1D	mi-	1d	mi-	1A	mi-	4f#X	mi-	1a	mi-
.	.	.	.	.	.	2g	.	.	.
.	.	.	.	.	.	4f#X	.	.	.
1GG	-e.	1d	-e.	1G	-e.	1g	-e.	1b	-e.
=11	=11	=11	=11	=11	=11	=11	=11	=11	=11
1r	.	1r	.	2r	.	2r	.	2r	.
.	.	.	.	1c	Ahi,	1e	Ahi,	2g	Ahi,
1C	Ahi,	2r	.	.	.	.	.	4r	.
.	.	.	.	.	.	.	.	2ee	Ahi
.	.	2c	Ahi	2G	Ahi	2g	Ahi	.	.
.	.	.	.	.	.	.	.	4cc	man
=12	=12	=12	=12	=12	=12	=12	=12	=12	=12
*	*	*	*	*	*	*	*	*	*
4r	.	4d	man	4G	man	4g	man	4b	ti-
2C	Ahi	4.c	ti-	4.c	ti-	4.e	ti-	8ee	-mi-
.	.	.	.	.	.	.	.	8ee	-da e
.	.	.	.	.	.	.	.	4ee	len-
.	.	8G	-mi-	8c	-mi-	8g	-mi-	.	.
4G	man	4G	-da e	4B	-da e	4d	-da e	4dd	-ta,
4.F	ti-	2.A	len-	1c	len-	1f	len-	4r	.
.	.	.	.	.	.	.	.	2a	Ahi
8F	-mi-	.	.	.	.	.	.	.	.
2F	-da e	.	.	.	.	.	.	.	.
.	.	8GL	.	.	.	.	.	4a	man
.	.	8FJ	.	.	.	.	.	.	.
=13	=13	=13	=13	=13	=13	=13	=13	=13	=13
1C	len-	2G	.	0c	-ta,	2e	-ta,	4r	.
.	.	.	.	.	.	.	.	4.ee	ti-
.	.	2G	-ta,	.	.	4r	.	.	.
.	.	.	.	.	.	.	.	8ee	-mi-
.	.	.	.	.	.	4G	hor	4cc	-da e
1C	-ta,	4r	.	.	.	4.c	che	2.g	len-
.	.	4G	hor	.	.	.	.	.	.
.	.	.	.	.	.	8d	non	.	.
.	.	4c	che	.	.	2e	o-	.	.
.	.	4d	non	.	.	.	.	4g	-ta, hor
=14	=14	=14	=14	=14	=14	=14	=14	=14	=14
*	*	*	*	*	*	*	*	*	*
4r	.	2e	o-	0r	.	2c	-so,	8cc	che
.	.	.	.	.	.	.	.	8dd	non
4C	hor	.	.	.	.	.	.	4ee	o-
4F	che	2d	-si,	.	.	2r	.	2a	-si,
4G	non	.	.	.	.	.	.	.	.
1A	o-	8r	.	.	.	4r	.	4r	.
.	.	8c	Tu	.	.	.	.	.	.
.	.	8c	che	.	.	4e	Tu	2cc	Tu
.	.	8c	sai	.	.	.	.	.	.
.	.	2e	tut-	.	.	4.e	che	.	.
.	.	.	.	.	.	.	.	8a	che
.	.	.	.	.	.	8f	sai	8a	sai
=15	=15	=15	=15	=15	=15	=15	=15	=15	=15
1G	-si,	4e	-te	0r	.	4.g	tut-	8b	tut-
.	.	.	.	.	.	.	.	8b	-te
.	.	8d	di	.	.	.	.	2cc	di
.	.	8c	fe-	.	.	8g	-te	.	.
.	.	2.d	-rir,	.	.	4g	di	.	.
.	.	.	.	.	.	4d	fe-	4b	fe-
1r	.	.	.	.	.	4f	-rir	4a	-rir
.	.	8B	di	.	.	4g	le	4g	le
.	.	8B	fe-	.	.	.	.	.	.
.	.	4c#X	-rir	.	.	4g	vi-	2a	vi-
.	.	4d	le	.	.	4f#X	.	.	.
=16	=16	=16	=16	=16	=16	=16	=16	=16	=16
*	*	*	*	*	*	*	*	*	*
4r	.	1G	vi-	4r	.	1g	-e,	2g	-e,
4G	Tu	.	.	4d	Tu	.	.	.	.
4.E	che	.	.	4e	che	.	.	4r	.
.	.	.	.	4e	sai	.	.	4cc	Tu
8F	sai	.	.	.	.	.	.	.	.
8G	tut-	1G	-ve,	8d	tut-	8r	.	8b	che
8C	-te	.	.	8e	-te	8g	Tu	8cc	sai
8C	di	.	.	8e	di	8g	che	8cc	tut-
8C	fe-	.	.	8e	fe-	8g	sai	8cc	-te
4BB	-rir	.	.	4d	-rir,	4g	tut-	4dd	di
4BB	le	.	.	8G	di	4g	-te	4dd	fe-
.	.	.	.	8G	fe-	.	.	.	.
=17	=17	=17	=17	=17	=17	=17	=17	=17	=17
1D	vi-	1r	.	4A	-rir	8f	di	8a	-ri
.	.	.	.	.	.	8e	fe-	8g	le
.	.	.	.	4B	le	8d	-rir	2g	vi-
.	.	.	.	.	.	8c	le	.	.
.	.	.	.	2A	vi-	2d	vi-	.	.
.	.	.	.	.	.	.	.	4f#X	.
1GG	-e,	2r	.	1G	-e,	1d	-e,	1g	-e,
.	.	[2d	Tu	.	.	.	.	.	.
=18	=18	=18	=18	=18	=18	=18	=18	=18	=18
*	*	*	*	*	*	*	*	*	*
0r	.	4d]	.	0r	.	4f	Tu	4r	.
.	.	4B	mi-	.	.	4g	mi-	2dd	Tu
.	.	4e	-ni-	.	.	4g	-ni-	.	.
.	.	8e	-stra	.	.	8g	-stra	4cc	mi-
.	.	8e	di	.	.	8g	di	.	.
.	.	4c#X	mor-	.	.	4e	mor-	4a	-ni-
.	.	2d	-te em-	.	.	2f	-te em-	8a	-stra
.	.	.	.	.	.	.	.	8a	di
.	.	.	.	.	.	.	.	4a	mor-
.	.	[4d	-pia ed	.	.	8e	-pia ed	[4b	-te em-
.	.	.	.	.	.	8d	in-	.	.
=19	=19	=19	=19	=19	=19	=19	=19	=19	=19
1r	.	4d]	.	1r	.	4d	-fa-	4b]	.
.	.	4G	in-	.	.	2e	.	8b	-pia ed
.	.	.	.	.	.	.	.	8b	in-
.	.	2F	-fa-	.	.	.	.	4cc	-fa-
.	.	.	.	.	.	4d	.	8bL	.
.	.	.	.	.	.	.	.	8aJ	.
4r	.	2E	-me,	4r	.	1e	-me,	8g#X	.
.	.	.	.	.	.	.	.	4a	.
8E	Tu	.	.	8B	Tu	.	.	.	.
8E	mi-	.	.	8B	mi-	.	.	8g#X	.
[2A	-ni-	2r	.	[2c	-ni-	.	.	2a	-me,
=20	=20	=20	=20	=20	=20	=20	=20	=20	=20
*	*	*	*	*	*	*	*	*	*
4A]	.	2r	.	4c]	.	4r	.	0r	.
8G	-stra	.	.	8B	-stra	8d	Tu	.	.
8F	di	.	.	8A	di	8d	mi-	.	.
2.G	mor-	4r	.	2B	mor-	4d	-ni-	.	.
.	.	2G	em-	.	.	8c	-stra-	.	.
.	.	.	.	.	.	8B	-di	.	.
.	.	.	.	2.G	-te em-	4d	mor-	.	.
2BB	-ta em-	2c	-pia ed	.	.	2e	-te em-	.	.
8BB	-pia ed	4B	in-	8G	-pia ed	4d	-pia ed	.	.
8BB	in-	.	.	8G	in-	.	.	.	.
=21	=21	=21	=21	=21	=21	=21	=21	=21	=21
1AA	-fa-	4F#X	-fa-	1D	-fa-	4d	in-	1r	.
.	.	2G	.	.	.	2c	-fa-	.	.
.	.	4F#X	.	.	.	8BL	.	.	.
.	.	.	.	.	.	8AJ	.	.	.
1GG	-me,	1G	-me,	1D	-me,	2B	-me,	2r	.
.	.	.	.	.	.	4r	.	2g	Di
.	.	.	.	.	.	4d	Di	.	.
=22	=22	=22	=22	=22	=22	=22	=22	=22	=22
*	*	*	*	*	*	*	*	*	*
0r	.	1r	.	0r	.	4.f#X	que-	4.a	que-
.	.	.	.	.	.	8f#X	-sta	8a	-sta
.	.	.	.	.	.	4f#X	vi-	4a	vi-
.	.	.	.	.	.	4g	-ta	4b	-ta
.	.	2r	.	.	.	4e	rea,	2cc	re-
.	.	.	.	.	.	4f#X	Di	.	.
.	.	4r	.	.	.	4.g	que-	2b	-a
.	.	4G	Di	.	.	.	.	.	.
.	.	.	.	.	.	8fnXi	-sta	.	.
=23	=23	=23	=23	=23	=23	=23	=23	=23	=23
0r	.	4.A	que-	0r	.	4e	vi-	2cc	tron-
.	.	.	.	.	.	4f	-ta	.	.
.	.	8A	-sta	.	.	.	.	.	.
.	.	4B	vi-	.	.	4d	rea	4dd	-car
.	.	4c#X	-ta	.	.	4e	tron-	2a	lo
.	.	4d	rea	.	.	4f	-car	.	.
.	.	4G	tron-	.	.	4g	lo	8gL	sta-
.	.	.	.	.	.	.	.	8fJ	.
.	.	4A	-car	.	.	[2c	sta-	4.e	.
.	.	4E	lor	.	.	.	.	.	.
.	.	.	.	.	.	.	.	16dL	.
.	.	.	.	.	.	.	.	16cJ	.
=24	=24	=24	=24	=24	=24	=24	=24	=24	=24
*	*	*	*	*	*	*	*	*	*
2r	.	4F#X	sta-	2r	.	4c]	.	2d	.
.	.	4G	.	.	.	4B	.	.	.
4r	.	2CnX	-me,	4G	Di	2c	-me,	4e	-me,
4C	Di	.	.	4.A	que-	.	.	8r	.
.	.	.	.	.	.	.	.	8e	Di
4.D	que-	1r	.	.	.	2r	.	4.f	que-
.	.	.	.	8A	-sta	.	.	.	.
.	.	.	.	8B	vi-	.	.	.	.
8D	-sta	.	.	8B	-ta	.	.	8f	-sta
4E	vi-	.	.	4c	rea	4r	.	4e	vi-
4F#X	-ta	.	.	[4d	tron-	4A	Di	4a	-ta
=25	=25	=25	=25	=25	=25	=25	=25	=25	=25
2G	rea	2r	.	4d]	.	8B	que-	2g	rea,
.	.	.	.	.	.	8G	-sta	.	.
.	.	.	.	8c	-car	8e	vi-	.	.
.	.	.	.	8B	lo	8d	-ta	.	.
2.BB	tron-	2G	Di	2g	sta-	2d	rea	4r	.
.	.	.	.	.	.	.	.	2dd	Di
.	.	4.D	que-	4G	-me,	2.d	tron-	.	.
8AA	-car	.	.	4G	Di	.	.	8cc	que-
8GG	lo	8E	-sta	.	.	.	.	8b	-sta
[2D	sta-	4.FnXi	vi-	8A	que-	.	.	4a	vi-
.	.	.	.	8A	-sta	.	.	.	.
.	.	.	.	8A	vi-	8cL	-car	4a	-ta
.	.	8G	-ta	8B	-ta	16B	.	.	.
.	.	.	.	.	.	16cJ	.	.	.
=26	=26	=26	=26	=26	=26	=26	=26	=26	=26
*	*	*	*	*	*	*	*	*	*
0D]	.	4A	ra	4A	rea	2.d	.	4a	rea
.	.	4D	tron-	2B	tron-	.	.	2dd	tron-
.	.	2.d	-car	.	.	.	.	.	.
.	.	.	.	8A	-car	4e	lo	8cc	-car
.	.	.	.	8G	lo	.	.	8b	lo
.	.	.	.	1A	sta-	4f#X	sta-	1a	sta-
.	.	4d	lo	.	.	2g	.	.	.
.	.	2d	sta-	.	.	.	.	.	.
.	.	.	.	.	.	4f#X	.	.	.
=27	=27	=27	=27	=27	=27	=27	=27	=27	=27
0GGl	-me?	0dl	-me?	0Gl	-me?	0gl	-me?	0bl	-me?
==	==	==	==	==	==	==	==	==	==
*-	*-	*-	*-	*-	*-	*-	*-	*-	*-
!!!system-decoration: [*]
!!!RDF**kern: i = editorial accidental
!!!RDF**kern: l = terminal long
!!!ENC: Emiliano Ricciardi
!!!END:
!!!EED: Ricciardi, Emiliano
!!!EEV: 2020/04/15
!!!YEC: Copyright 2018 Emiliano Ricciardi, All Rights Reserved
!!!ONB: Translated from MusicXML on 2020/04/15
!!@@BEGIN:	VERSEDATA
!!@CATALOGNUM:	Tsg12075
!!@LAST_MODIFIED: 2020/07/12
!!@TITLE:		Io vivo? Io spiro ancora? E gli odiosi
!!@CANTO:		XII
!!@OTTAVA:	75
!!@MANUSRC:	G-Al, G-Am, G-Au, G-Br<sub>1</sub>, G-Br<sub>2</sub>, G-Cv, G-Es<sub>1</sub>, G-Es<sub>2</sub>, G-Es<sub>3</sub>, G-F, G-Fr, G-Fr<sub>1</sub>, G-Fr<sub>2</sub>, G-Mc, G-Mc<sub>1</sub>, G-Mg, G-Mr, G-Mt, G-N, G-Ol
!!@PRINTSRC:	G-1580CM, G-1581B, G-1581CV, G-1581R, G-1581MR, G-1581P, G-1581V, G-1581V<sub>bis</sub>, G-1582C, G-1582M, G-1582MC, G-1582P, G-1582SC, G-1582SC<sub>bis</sub>, G-1583S, G-1584O, G-1584S, G-1585C, G-1585S, G-1588S, G-1589S, G-1590B, G-1590S, G-1592S, G-1593S, G-1594C, G-1595C, G-1597C, G-1598C, G-1599C, G-1600C, G-1600S, G-1601C, G-1601R, G-1602C, G-1604C, G-1604Cl, G-1604F, G-1604P, G-1606B, G-1606B<sub>bis</sub>, G-1606L, G-1607ZR, G-1608DP, G-1609GC, G-1610M, G-1611S, G-1611V, G-1612P, G-1613M, G-1613P, G-1613V, G-1615P, G-1616M, G-1617P, G-1619B, G-1619V, G-1620M, G-1620S, G-1621R, G-1624I, G-1624MT, G-1625C, G-1625S, G-1625SS, G-1626C, G-1626Co, G-1627M, G-1628T, G-1628Tu, G-1630L, G-1630T, G-1632FT, G-1639CF, G-1642M, G-1643I, G-1644P, G-1644S
!!@@BEGIN:	VERSES
!!@ABOUTIT:
!!@ABOUTEN:
!!@EDITOR:	Angelo Solerti
!!@EDITION_TITLE: Gerusalemme liberata. Poema eroico di Torquato Tasso. Edizione critica sui manoscritti e le prime stampe.
!!@EDITION_LOC:	Florence
!!@EDITION_PUB:	G. Barbera
!!@EDITION_DATE:  1895
!!@EDITION_VOL:
!!@EDITION_PAGE:
!!@TRANSLATOR:	Emiliano Ricciardi and Amyrose McCue Gill
!!@VERSE:
!!	Io vivo? Io spiro ancora? E gli odiosi
!!	Rai miro ancor di questo infausto die?
!!	Dì testimon de’ miei misfatti ascosi,
!!	Che rimprovera a me le colpe mie.
!!	Ahi man timida e lenta, or che non osi,
!!	Tu che sai tutte del ferir le vie,
!!	Tu ministra di morte empia ed infame,
!!	Di questa vita rea troncar lo stame?
!!@MVERSE_DATE: 20230824
!!@MVERSE:
!!	Io vi||vo? Io spi||ro_an|co||ra?_E gli o|dio||si	=a*
!!	Rai mi||ro_an|cor|| di que||sto_in|fau||sto di||e?	=b
!!	Dì te|sti|mon|| de’ miei mi|sfat||ti_as|co||si,		=a* (?)
!!	Che rim|pro||ve|ra_a me le col||pe mi||e.		=b
!!	Ahi man ti||mi|da_e len||ta,_or che non o||si,		=a
!!	Tu che sai tut||te del fer|ir|| le vi||e,		=b
!!	Tu mi|ni||stra di mor||te_em|pia_ed in|fa||me,		=c
!!	Di que||sta vi||ta rea tron|car|| lo sta||me?		=c
!!@TVERSE:
!!	I live? I still breathe? And the hateful
!!	Rays I still see of this damned day?
!!	Day—witness to my hidden misdeeds—
!!	That will reproach me for my faults.
!!	Alas, hand timid and slow, now what do you not dare,
!!	You, who know all the ways to wound,
!!	You, minister of death, wicked and sinister,
!!	Of this guilty life to cut off the shoot?
!!@@END:		VERSES
!!@OTHER_CRIT_ED:  Torquato Tasso, <i>Gerusalemme liberata</i>, ed. Lanfranco Caretti, 2 vols. (Bari: Laterza, 1967).
!!@ATTRIBUTION_ABOUT:
!!@DATING:	mid-1560s through 1570s
!!@DEDICATEE:	Duke Alfonso II d'Este
!!@COMMENTARY:
!!@@END:		VERSEDATA
!!@@BEGIN: SETTING
!!@CATALOGNUM:	Tsg12075a
!!@CANTO:		XII
!!@OTTAVA:	75
!!@TITLE:	Io vivo? Io spiro ancora? E gli odiosi
!!@COMPOSER:	Il Verso, Antonio
!!@PARTS:		1 of 3
!!@PRINCEPSTITLE:	Il decimoquinto libro de' madrigali à cinque voci
!!@PRINCEPSLOC:	Palermo
!!@NORMLOC:	Palermo
!!@NORMPUB:	Giovan Battista Maringo
!!@NORMPUBSHORT:	Maringo
!!@PRINCEPSPUB:	Giovan Battista Maringo
!!@PRINCEPSYEAR:	1619
!!@PRINCEPSRISM:	I 15
!!@OVOICES:	5
!!@EXTANTVOICES:	5
!!@OMENSURATION:	C
!!@OCLEFS:	C1,C3,C4,C4,F4
!!@OTIME:		
!!@OKEYSIG:	-
!!@FINAL:		(G)G
!!@TIMPEDITOR:	Ricciardi, Emiliano
!!@REPRINTS:	
!!@@END: SETTING
